X:146 
T:Mickey Callaghan's Jig 
B:CRE3.051 (Port Mhaidhc UÃÂÃÂÃÂÃÂ­ CheallachÃÂÃÂÃÂÃÂ¡in)
F:file ID: cre.3/146mickey_c
N:A cousin of "Patsy Geary's". 
R:single jig
Q:160
M:12/8
L:1/8
K:D
ABA ABc dAF AFD|A3-AFA d3 d2e|
~f3 fga efe d2B|AFA dAF E3 EFG|
ABA ABc dAF AFD|ABA ABc d3 d2e|
~f3 fga ece d2B|ABA f2e d3 d2||
|:e|f2e fge f2e fga|A2A BAF A3 AB/c/d|
e3 e2d efd e2f|gfg efe d3 d2:|

%%%

